src/images/icons/linkedin.svg

<svg xmlns="http://www.w3.org/2000/svg" width="25" height="24" fill="none" viewBox="0 0 25 24"><g clip-path="url(#clip0)"><path fill="#8E859A" d="M20.8084 20.1082H17.2769V14.6321C17.2769 13.3262 17.2533 11.6452 15.4401 11.6452C13.6007 11.6452 13.3193 13.068 13.3193 14.537V20.1078H9.78768V8.84669H13.178V10.3856H13.2255C13.5648 9.81124 14.055 9.33871 14.6441 9.01837C15.2332 8.69804 15.8989 8.5419 16.5705 8.56658C20.1499 8.56658 20.8099 10.8978 20.8099 13.9305L20.8084 20.1082ZM5.80288 7.30737C5.39755 7.30744 5.00128 7.1885 4.66422 6.96559C4.32715 6.74267 4.06443 6.42579 3.90925 6.05503C3.75407 5.68426 3.7134 5.27625 3.7924 4.88261C3.87141 4.48896 4.06654 4.12735 4.3531 3.84351C4.63967 3.55966 5.00481 3.36633 5.40234 3.28796C5.79988 3.20959 6.21195 3.2497 6.58646 3.40322C6.96097 3.55675 7.28109 3.81678 7.50634 4.15045C7.7316 4.48411 7.85187 4.87643 7.85194 5.27777C7.85199 5.54425 7.79902 5.80814 7.69607 6.05435C7.59312 6.30057 7.44222 6.5243 7.25195 6.71276C7.06167 6.90123 6.83576 7.05074 6.58713 7.15276C6.3385 7.25479 6.07202 7.30732 5.80288 7.30737V7.30737ZM7.56867 20.1082H4.03342V8.84669H7.56867V20.1082ZM22.5691 0.00160786H2.2588C1.79782 -0.00354313 1.3536 0.172731 1.02381 0.491694C0.694018 0.810658 0.505626 1.24621 0.5 1.70266V21.8963C0.505434 22.353 0.693715 22.7888 1.0235 23.1081C1.35328 23.4274 1.79759 23.604 2.2588 23.5992H22.5691C23.0312 23.6049 23.4768 23.4288 23.8078 23.1095C24.1389 22.7902 24.3285 22.3539 24.3349 21.8963V1.7012C24.3283 1.24385 24.1386 0.8078 23.8075 0.488844C23.4764 0.169889 23.031 -0.00588157 22.5691 0.00015027"/></g><defs><clipPath id="clip0"><rect width="24" height="24" fill="#fff" transform="translate(0.5)"/></clipPath></defs></svg>

<svg fill="none" viewBox="0 0 25 24"><g clip-path="url(#clip0)"><path fill="#8E859A" d="M20.808 20.108h-3.531v-5.476c0-1.306-.024-2.987-1.837-2.987-1.84 0-2.12 1.423-2.12 2.892v5.57H9.787V8.848h3.39v1.539h.047c.34-.575.83-1.047 1.42-1.368a3.745 3.745 0 011.925-.451c3.58 0 4.24 2.33 4.24 5.364l-.002 6.177zM5.803 7.308c-.405 0-.802-.12-1.139-.342-.337-.223-.6-.54-.755-.911a2.01 2.01 0 01.444-2.211 2.068 2.068 0 012.233-.44c.375.153.695.413.92.746a2.015 2.015 0 01-.254 2.563 2.05 2.05 0 01-1.45.594zm1.766 12.8H4.033V8.847H7.57v11.261zm15-20.106H2.26a1.749 1.749 0 00-1.235.49A1.709 1.709 0 00.5 1.702v20.194c.005.457.194.893.524 1.212.33.32.774.496 1.235.491h20.31a1.75 1.75 0 001.239-.49c.33-.319.52-.755.527-1.213V1.701A1.718 1.718 0 0023.808.49 1.752 1.752 0 0022.569 0"/></g><defs><clipPath id="clip0"><path fill="#fff" d="M0 0h24v24H0z" transform="translate(.5)"/></clipPath></defs></svg>
